X:1
T:[ID 1-116b]
T:[ID 1-116b]
T:Bezeichnung standardisiert: Boure Boure In anderer Quelle: [365]1/83 - Thomas Anton Kunz 1825 (Anm. S. Wascher);
T:Urheber unbekannt Datum in der hier transkribierten schriftlichen Quelle: vermutlich vor 1767
C:Urheber unbekannt
C:Datum in der hier transkribierten schriftlichen Quelle: vermutlich vor 1767
L:1/8
M:none
K:A
V:1 treble 
V:1
 E2 A2 A2 | A4 GA | B4 A2 | AB c2 A2 | E2 A2 A2 | A4 GA | B2 AB c2 | A6 :: Ac e2 e2 | e4 dc | %10
 Bc d2 d2 | d4 cB | AG A2 A2 | AG A2 A2 | B2 AB c2 | A6 :| %16

